**kern	**kern
*staff2	*staff1
*clefF4	*clefG2
*k[]	*k[]
*M3/4	*M3/4
*C:	*C:
=	=
(8eL	16ggLL
.	16g
8c	16ee
.	16gJJ
8G	16ccLL
.	16g
8c	16ee
.	16gJJ
8e	16ggLL
.	16g
8d#J)	16ff#
.	16gJJ
=36	=36
(8eL	16ggLL
.	16g
8c	16ee
.	16gJJ
8G	16ccLL
.	16g
8e	16gg
.	16gJJ
8d	16ffLL
.	16g
8cJ)	16ee
.	16gJJ
=37	=37
(8dL	16ffLL
.	16g
8B	16dd
.	16gJJ
8G	16bLL
.	16g
8B	16dd
.	16gJJ
8d	16ffLL
.	16g
8c#J)	16ee
.	16gJJ
=38	=38
8dL	16ffLL
.	16g
8B	16dd
.	16gJJ
8G	16bLL
.	16g
8d	16ff
.	16gJJ
8c	16eeLL
.	16g
8BJ	16dd#
.	16gJJ
=39	=39
16cLL	16eeLL
16B	16dd#
16A	16ee
16GJJ	16ccJJ
16ALL	16ffLL
16G	16ee
16F	16dd
16EJJ	16ccJJ
16FLL	16aaLL
16E	16gg
16D	16ff
16CJJ	16eeJJ
=40	=40
4.C 4.E	16cccLL
.	16bb
.	16ccc
.	16ccJJ
.	16cccLL
.	16cc
8D 8F	16bb
.	16ccJJ
8EL 8G	16bb-LL
.	16cc
8EJ [8c	16gg#
.	16ccJJ
=41	=41
16FLL 16c]	16aaLL
16c#	16ee
16d	16ff
16fJJ	16ddJJ
16eLL	16ccLL
16G	16ee
16c	16gg
16GJJ	16ff#JJ
16dLL	16ffLL
16G	16ee
16B	16ff
16GJJ	16ddJJ
=42	=42
16cLL	4cc
16G	.
16E	.
16GJJ	.
16CLL	4r
16GG	.
16EE	.
16GGJJ	.
4CC	4r
=43||	=43||
*-	*-
